Simply white circles/scalable/actions/gtk-preferences.svg

<svg xmlns="http://www.w3.org/2000/svg" width="24" height="24">
  <path fill="#e6e6e6" d="M3.780466 1.1691687c-.335893.023695-.666378.1322175-.95904.3228139-.110891.073277-.214985.1578935-.313412.256998l-.398032.3948984c-.787524.7817538-.790361 2.0417956-.0063 2.8269729L9.73526 12.61496c.546205.547026 1.323083.702148 2.012102.488925l6.672536 6.666264.197446.730251a.50439321.50469422 89.982474 0 0 .197451.278936l2.187614 1.516912a.50439321.50469422 89.982474 0 0 .645627-.05644l.95277-.949637a.50439321.50469422 89.982474 0 0 .05328-.648761l-1.485567-2.184475a.50439321.50469422 89.982474 0 0-.282069-.194308l-.752191-.22252-6.666265-6.656865c.203771-.678986.04374-1.4410599-.49519-1.9807622L5.34439 1.7583826c-.34303-.3440421-.778274-.536296-1.22544-.5798116v-.00316c-.111787-.010849-.22652-.014139-.338484-.00626zm14.006369.1504376v.00627c-.02642 0-.06487.00297-.09088.00942-1.204596.4226521-2.332631 1.2876257-2.870854 2.2596903-.426207.770012-.511796 1.6325547-.304009 2.444611-.232696.5892196-.639073 1.383873-1.510645 2.2565629l.861881.9590393c.456385.8162332.527605 1.4661782.445048 2.0183712.966864-.968072 2.717929-2.1871052 3.334697-2.3975989 1.512789.2606766 3.060098-.3769895 3.795414-1.7049595.538435-.9725757.667704-2.3892974.376096-3.6199045-.01049-.043545-.03247-.094604-.06271-.1222315-.05657-.06367-.141372-.086334-.225657-.075219-.08432.00604-.156358.049985-.197448.1253647L19.86162 6.152414c-.131967.2375494-.432876.3438683-.814874.3322162-.384291-.0060354-.839898-.1499119-1.300659-.3980326-.460649-.2483552-.823241-.5571843-1.040525-.8712844-.215221-.3119393-.288307-.6241506-.156703-.8618823l1.466766-2.64206c.05468-.095503.05194-.2170564-.0187-.3008752-.0531-.06367-.13092-.094795-.209985-.090888zM8.50358 12.533476l-6.274502 5.926613c-.670219.675834-.578774 1.829302.194315 2.59505.773084.765835 1.927997.84493 2.598183.16923l6.728947-7.239807c-1.232487.393564-2.302335-.172844-3.246943-1.447963zm-4.698041 6.139732v.0032c.251841-.000954.503609.09258.695773.282072.384351.380709.387257 1.007442.0063 1.391548-.380943.383774-1.00409.389105-1.388413.0032-.384354-.380433-.387252-1.007485-.0063-1.391531.190464-.192202.440796-.287439.69264-.28834z"/>
</svg>

<?xml version="1.0" encoding="UTF-8" standalone="no"?>
<svg
   xmlns:dc="http://purl.org/dc/elements/1.1/"
   xmlns:cc="http://creativecommons.org/ns#"
   xmlns:rdf="http://www.w3.org/1999/02/22-rdf-syntax-ns#"
   xmlns:svg="http://www.w3.org/2000/svg"
   xmlns="http://www.w3.org/2000/svg"
   xmlns:sodipodi="http://sodipodi.sourceforge.net/DTD/sodipodi-0.dtd"
   xmlns:inkscape="http://www.inkscape.org/namespaces/inkscape"
   viewBox="0 0 24 24"
   version="1.1"
   id="svg4"
   sodipodi:docname="gtk-preferences.svg"
   inkscape:version="0.92.3 (2405546, 2018-03-11)"
   width="24"
   height="24"
   style="fill:#000000">
  <metadata
     id="metadata10">
    <rdf:RDF>
      <cc:Work
         rdf:about="">
        <dc:format>image/svg+xml</dc:format>
        <dc:type
           rdf:resource="http://purl.org/dc/dcmitype/StillImage" />
        <dc:title></dc:title>
      </cc:Work>
    </rdf:RDF>
  </metadata>
  <defs
     id="defs8" />
  <sodipodi:namedview
     pagecolor="#ffffff"
     bordercolor="#666666"
     borderopacity="1"
     objecttolerance="10"
     gridtolerance="10"
     guidetolerance="10"
     inkscape:pageopacity="0"
     inkscape:pageshadow="2"
     inkscape:window-width="1366"
     inkscape:window-height="719"
     id="namedview6"
     showgrid="false"
     inkscape:zoom="22.166667"
     inkscape:cx="12"
     inkscape:cy="12"
     inkscape:window-x="0"
     inkscape:window-y="25"
     inkscape:window-maximized="1"
     inkscape:current-layer="svg4"
     showguides="true"
     inkscape:guide-bbox="true" />
  <path
     style="fill:#e6e6e6;fill-opacity:1;stroke-width:0.41729194"
     d="M 3.780466,1.1691687 C 3.444573,1.1928637 3.114088,1.3013862 2.821426,1.4919826 2.710535,1.5652596 2.606441,1.6498761 2.508014,1.7489806 L 2.109982,2.143879 C 1.322458,2.9256328 1.319621,4.1856746 2.103682,4.9708519 L 9.73526,12.61496 c 0.546205,0.547026 1.323083,0.702148 2.012102,0.488925 l 6.672536,6.666264 0.197446,0.730251 a 0.50439321,0.50469422 89.982474 0 0 0.197451,0.278936 l 2.187614,1.516912 a 0.50439321,0.50469422 89.982474 0 0 0.645627,-0.05644 l 0.95277,-0.949637 a 0.50439321,0.50469422 89.982474 0 0 0.05328,-0.648761 L 21.168519,18.456935 A 0.50439321,0.50469422 89.982474 0 0 20.88645,18.262627 l -0.752191,-0.22252 -6.666265,-6.656865 c 0.203771,-0.678986 0.04374,-1.4410599 -0.49519,-1.9807622 L 5.34439,1.7583826 C 5.00136,1.4143405 4.566116,1.2220866 4.11895,1.178571 V 1.175411 C 4.007163,1.164562 3.89243,1.161272 3.780466,1.169151 Z m 14.006369,0.1504376 v 0.00627 c -0.02642,0 -0.06487,0.00297 -0.09088,0.00942 -1.204596,0.4226521 -2.332631,1.2876257 -2.870854,2.2596903 -0.426207,0.770012 -0.511796,1.6325547 -0.304009,2.444611 -0.232696,0.5892196 -0.639073,1.383873 -1.510645,2.2565629 l 0.861881,0.9590393 c 0.456385,0.8162332 0.527605,1.4661782 0.445048,2.0183712 0.966864,-0.968072 2.717929,-2.1871052 3.334697,-2.3975989 1.512789,0.2606766 3.060098,-0.3769895 3.795414,-1.7049595 0.538435,-0.9725757 0.667704,-2.3892974 0.376096,-3.6199045 -0.01049,-0.043545 -0.03247,-0.094604 -0.06271,-0.1222315 -0.05657,-0.06367 -0.141372,-0.086334 -0.225657,-0.075219 -0.08432,0.00604 -0.156358,0.049985 -0.197448,0.1253647 L 19.86162,6.152414 C 19.729653,6.3899634 19.428744,6.4962823 19.046746,6.4846302 18.662455,6.4785948 18.206848,6.3347183 17.746087,6.0865976 17.285438,5.8382424 16.922846,5.5294133 16.705562,5.2153132 16.490341,4.9033739 16.417255,4.5911626 16.548859,4.3534309 l 1.466766,-2.64206 c 0.05468,-0.095503 0.05194,-0.2170564 -0.0187,-0.3008752 -0.0531,-0.06367 -0.13092,-0.094795 -0.209985,-0.090888 z M 8.50358,12.533476 2.229078,18.460089 c -0.670219,0.675834 -0.578774,1.829302 0.194315,2.59505 0.773084,0.765835 1.927997,0.84493 2.598183,0.16923 l 6.728947,-7.239807 C 10.518036,14.378126 9.448188,13.811718 8.50358,12.536599 Z m -4.698041,6.139732 v 0.0032 c 0.251841,-9.54e-4 0.503609,0.09258 0.695773,0.282072 0.384351,0.380709 0.387257,1.007442 0.0063,1.391548 -0.380943,0.383774 -1.00409,0.389105 -1.388413,0.0032 -0.384354,-0.380433 -0.387252,-1.007485 -0.0063,-1.391531 0.190464,-0.192202 0.440796,-0.287439 0.69264,-0.28834 z"
     id="path818"
     inkscape:connector-curvature="0" />
</svg>
